lib/flags/s/180.svg

<svg xmlns="http://www.w3.org/2000/svg" fill="none" viewBox="0 0 16 12"><mask id="180_svg__a" width="16" height="12" x="0" y="0" mask-type="alpha" maskUnits="userSpaceOnUse"><path fill="#fff" d="M0 0H16V12H0z"/></mask><g mask="url(#180_svg__a)"><path fill="#3195F9" fill-rule="evenodd" d="M0 0V12H16V0H0Z" clip-rule="evenodd"/><mask id="180_svg__b" width="16" height="12" x="0" y="0" mask-type="alpha" maskUnits="userSpaceOnUse"><path fill="#fff" fill-rule="evenodd" d="M0 0V12H16V0H0Z" clip-rule="evenodd"/></mask><g mask="url(#180_svg__b)"><path fill="#E31D1C" stroke="#FECA00" stroke-width="1.25" d="M-0.910841 12.7196L-0.56386 13.2395L-0.0440243 12.8925L18.0864 0.790733L18.6063 0.443753L18.2593 -0.0760835L17.149 -1.73956L16.802 -2.25939L16.2821 -1.91241L-1.84832 10.1893L-2.36816 10.5363L-2.02118 11.0561L-0.910841 12.7196Z"/><path fill="#FECA00" fill-rule="evenodd" d="M2.46533 4.30314L0.722513 5.51199L1.27941 3.44152L0 2.1189L1.73239 2.04739L2.46533 0L3.19827 2.04739H4.92771L3.65125 3.44152L4.29052 5.38979L2.46533 4.30314Z" clip-rule="evenodd"/></g></g></svg>

<svg xmlns="http://www.w3.org/2000/svg" fill="none" viewBox="0 0 16 12"><mask id="180_svg__a" width="16" height="12" x="0" y="0" maskUnits="userSpaceOnUse"><path fill="#fff" d="M0 0h16v12H0z"/></mask><g mask="url(#180_svg__a)"><path fill="#3195F9" fill-rule="evenodd" d="M0 0v12h16V0H0z" clip-rule="evenodd"/><mask id="180_svg__b" width="16" height="12" x="0" y="0" maskUnits="userSpaceOnUse"><path fill="#fff" fill-rule="evenodd" d="M0 0v12h16V0H0z" clip-rule="evenodd"/></mask><g mask="url(#180_svg__b)"><path fill="#E31D1C" stroke="#FECA00" stroke-width="1.25" d="M-.91 12.72l.346.52.52-.348L18.086.791l.52-.347-.347-.52-1.11-1.664-.347-.52-.52.348-18.13 12.101-.52.347.347.52 1.11 1.664z"/><path fill="#FECA00" fill-rule="evenodd" d="M2.465 4.303L.723 5.512l.556-2.07L0 2.119l1.732-.072L2.465 0l.733 2.047h1.73L3.65 3.442l.64 1.948-1.826-1.087z" clip-rule="evenodd"/></g></g></svg>
